public/client5.svg

<svg width="106" height="60" viewBox="0 0 106 60" fill="none" xmlns="http://www.w3.org/2000/svg">
<path d="M27.4876 45.2778C27.7175 45.5634 27.84 45.9212 27.8336 46.2884C27.8453 46.528 27.8032 46.7671 27.7104 46.988C27.6176 47.209 27.4765 47.4062 27.2975 47.565C26.851 47.9037 26.2977 48.0692 25.7393 48.0313H23V41.6263H25.6832C26.2129 41.5909 26.7383 41.7413 27.1698 42.0518C27.3431 42.1974 27.4803 42.3815 27.5706 42.5895C27.6609 42.7974 27.7019 43.0236 27.6902 43.2502C27.706 43.6035 27.5954 43.9509 27.3786 44.2296C27.1704 44.4841 26.8826 44.6605 26.5621 44.7302C26.9255 44.7968 27.2535 44.9909 27.4876 45.2778ZM24.2746 44.3109H25.4215C25.6821 44.3303 25.941 44.2548 26.1507 44.0982C26.2368 44.0198 26.3038 43.9226 26.3465 43.8141C26.3892 43.7056 26.4064 43.5887 26.3969 43.4724C26.405 43.3565 26.3874 43.2403 26.3453 43.1321C26.3033 43.0239 26.2379 42.9264 26.1538 42.8466C25.9378 42.6856 25.6709 42.6088 25.4028 42.6307H24.2746V44.3109ZM26.2629 46.7672C26.3549 46.6869 26.4273 46.5865 26.4743 46.4736C26.5213 46.3607 26.5418 46.2385 26.534 46.1163C26.541 45.9928 26.5197 45.8693 26.4716 45.7554C26.4235 45.6414 26.35 45.5401 26.2567 45.4593C26.0323 45.2922 25.7563 45.2102 25.4776 45.2277H24.2746V46.9893H25.4931C25.7674 47.0052 26.0389 46.9269 26.2629 46.7672Z" fill="#AFB1B8"/>
<path d="M32.9724 48.0313L31.4797 45.5281H30.9187V48.0313H29.6348V41.6263H32.0656C32.6783 41.5834 33.284 41.7783 33.7578 42.1708C34.0976 42.5184 34.3025 42.9764 34.3357 43.4624C34.3688 43.9483 34.228 44.4301 33.9385 44.821C33.6386 45.1659 33.229 45.3959 32.7792 45.4718L34.3686 48.0313H32.9724ZM30.9187 44.6552H31.969C32.6982 44.6552 33.0628 44.3318 33.0628 43.6852C33.0703 43.5531 33.0503 43.421 33.0041 43.2971C32.958 43.1732 32.8867 43.0603 32.7948 42.9655C32.5644 42.7731 32.2676 42.6798 31.969 42.7058H30.9063L30.9187 44.6552Z" fill="#AFB1B8"/>
<path d="M39.9905 46.742H37.432L36.9801 48.0311H35.6338L37.9836 41.6981H39.4389L41.7794 48.0311H40.4331L39.9905 46.742ZM39.6477 45.772L38.7128 43.0686L37.7779 45.772H39.6477Z" fill="#AFB1B8"/>
<path d="M48.7759 48.0312H47.5013L44.6436 43.6757V48.0312H43.3721V41.6262H44.6436L47.5013 46.0068V41.6262H48.7759V48.0312Z" fill="#AFB1B8"/>
<path d="M56.0497 46.4981C55.7862 46.9817 55.3846 47.375 54.8966 47.6276C54.3418 47.909 53.7261 48.0477 53.1047 48.0313H50.8359V41.6263H53.1047C53.725 41.61 54.3399 41.7453 54.8966 42.0206C55.3845 42.2674 55.7865 42.6569 56.0497 43.1376C56.3121 43.6585 56.4488 44.2341 56.4488 44.8178C56.4488 45.4016 56.3121 45.9772 56.0497 46.4981ZM54.5912 46.3448C54.955 45.9193 55.155 45.377 55.155 44.8163C55.155 44.2555 54.955 43.7133 54.5912 43.2878C54.1515 42.9024 53.5781 42.7067 52.9956 42.7433H52.1106V46.8892H52.9956C53.5781 46.9258 54.1515 46.7302 54.5912 46.3448Z" fill="#AFB1B8"/>
<path d="M40.7886 6C40.7886 6 57.2401 12.236 56.8911 21.2599V36.5229C56.8911 36.5229 40.452 30.2838 40.7948 21.2599L40.7886 6Z" fill="#AFB1B8"/>
<path d="M71.5474 32.9496C74.6544 30.8028 78.2483 29.4731 81.9998 29.0822V24.3043C77.6772 25.977 74.0101 29.0101 71.5474 32.9496Z" fill="#AFB1B8"/>
<path d="M69.6809 34.389C72.2239 29.2478 76.6326 25.2805 82.0001 23.3032V9.53577C82.0001 9.53577 58.5708 18.4189 59.0663 31.2695V53C59.0663 53 60.1103 52.6027 61.7527 51.858C61.7527 51.1633 61.7527 50.4625 61.8275 49.7584C62.3124 43.7926 65.1372 38.2643 69.6809 34.389Z" fill="#AFB1B8"/>
<path d="M67.4528 42.4617C67.5758 40.9546 67.8504 39.4639 68.2724 38.0123C65.4432 41.3589 63.7299 45.5117 63.3734 49.8867C63.3391 50.2997 63.3204 50.7127 63.311 51.1383C64.6417 50.4968 66.1906 49.6958 67.8174 48.754C67.4022 46.6842 67.2795 44.5659 67.4528 42.4617Z" fill="#AFB1B8"/>
<path d="M68.3846 42.54C68.2286 44.4437 68.3261 46.3599 68.6744 48.2378C75.0755 44.3923 82.2682 38.4504 81.9908 31.2695V30.6437C77.4175 31.1575 73.1387 33.1648 69.8119 36.3571C69.033 38.3355 68.5519 40.4193 68.3846 42.54Z" fill="#AFB1B8"/>
</svg>

<svg xmlns="http://www.w3.org/2000/svg" width="106" height="60" fill="none"><path fill="#AFB1B8" d="M27.488 45.278c.23.285.352.643.346 1.01a1.604 1.604 0 0 1-.537 1.277c-.446.339-1 .504-1.558.466H23v-6.405h2.683a2.284 2.284 0 0 1 1.487.426 1.463 1.463 0 0 1 .52 1.198c.016.353-.095.7-.311.98-.209.254-.496.43-.817.5.363.067.691.26.926.548Zm-3.213-.967h1.147c.26.02.519-.056.729-.213a.761.761 0 0 0 .246-.626.787.787 0 0 0-.243-.625 1.106 1.106 0 0 0-.751-.216h-1.128v1.68Zm1.988 2.456a.796.796 0 0 0 .271-.65.81.81 0 0 0-.277-.658 1.18 1.18 0 0 0-.78-.231h-1.202v1.761h1.218c.274.016.546-.062.77-.222ZM32.972 48.031l-1.492-2.503h-.561v2.503h-1.284v-6.405h2.43a2.39 2.39 0 0 1 1.693.545 2.047 2.047 0 0 1 .18 2.65c-.3.345-.709.575-1.159.65l1.59 2.56h-1.397Zm-2.053-3.376h1.05c.73 0 1.094-.323 1.094-.97a.956.956 0 0 0-.268-.72 1.135 1.135 0 0 0-.826-.26h-1.063l.013 1.95ZM39.99 46.742h-2.558l-.452 1.29h-1.346l2.35-6.334h1.455l2.34 6.333h-1.346l-.443-1.289Zm-.342-.97-.935-2.703-.935 2.703h1.87ZM48.776 48.031H47.5l-2.857-4.355v4.355h-1.272v-6.405h1.272l2.857 4.38v-4.38h1.275v6.405ZM56.05 46.498a2.757 2.757 0 0 1-1.153 1.13c-.555.281-1.17.42-1.792.403h-2.27v-6.405h2.27a3.816 3.816 0 0 1 1.792.395c.488.246.89.636 1.153 1.117a3.735 3.735 0 0 1 0 3.36Zm-1.459-.153a2.352 2.352 0 0 0 0-3.057 2.21 2.21 0 0 0-1.595-.545h-.885v4.146h.885a2.21 2.21 0 0 0 1.595-.544ZM40.789 6S57.24 12.236 56.89 21.26v15.263s-16.439-6.24-16.096-15.263L40.789 6ZM71.547 32.95A22.486 22.486 0 0 1 82 29.082v-4.778a21.467 21.467 0 0 0-10.453 8.646Z"/><path fill="#AFB1B8" d="M69.68 34.389A22.382 22.382 0 0 1 82 23.303V9.536s-23.43 8.883-22.934 21.733V53s1.044-.397 2.687-1.142c0-.695 0-1.395.075-2.1A22.606 22.606 0 0 1 69.68 34.39Z"/><path fill="#AFB1B8" d="M67.453 42.462c.123-1.507.397-2.998.82-4.45a21.04 21.04 0 0 0-4.962 13.126 68.028 68.028 0 0 0 4.506-2.384 22.573 22.573 0 0 1-.364-6.292ZM68.385 42.54a21.58 21.58 0 0 0 .29 5.698c6.4-3.846 13.593-9.788 13.316-16.968v-.626a20.972 20.972 0 0 0-12.18 5.713 21.492 21.492 0 0 0-1.426 6.183Z"/></svg>
